assets/images/sentry.svg

<svg width="24" height="24" viewBox="0 0 24 24" fill="none" xmlns="http://www.w3.org/2000/svg">
<path d="M23.6631 22.8158C24.1123 21.9724 24.1123 21.1247 23.6631 20.2821L13.9405 1.18334C13.4958 0.339915 12.7458 0 11.9996 0C11.2534 0 10.5034 0.507753 10.0587 1.18334L6.91411 7.43913L7.66408 7.94179C10.0587 9.46505 11.9996 11.6588 13.3481 14.3663C14.5428 16.733 15.289 19.2666 15.4412 21.9724H13.1951C13.0473 19.7744 12.4489 17.5755 11.4019 15.5496C10.355 13.1829 8.71103 11.324 6.61713 9.96857L5.86716 9.4659L2.8793 15.2139L3.62552 15.7166C5.57018 17.0669 6.91411 19.2666 7.2156 21.8054H2.28158C2.13384 21.8054 1.98084 21.6325 1.98084 21.6325C1.98084 21.6325 1.8331 21.4655 1.98084 21.2976L3.32853 18.591C2.8793 18.0884 2.28158 17.7476 1.68461 17.5806L0.336922 20.2821C-0.112307 21.1298 -0.112307 21.9732 0.336922 22.8209C0.786151 23.6643 1.38387 24 2.27783 24H9.15651V22.9896C9.15651 21.1306 8.71178 19.4396 7.96181 17.7485C7.36409 16.3981 6.46563 15.3818 5.42318 14.5383L6.47013 12.3403C7.81332 13.5237 9.01327 14.874 9.90722 16.5651C10.9542 18.5919 11.4034 20.7899 11.4034 22.9896V24H17.2351V22.9896C17.2351 19.6065 16.4852 16.2252 14.8412 13.1838C13.6465 10.4772 11.7004 8.2834 9.45875 6.59231L11.7004 2.19885C11.8534 2.03186 12.0011 2.03186 12.0011 2.03186C12.1489 2.03186 12.1489 2.03186 12.3019 2.19885L22.0207 21.2942C22.1684 21.4612 22.0207 21.6333 22.0207 21.6333C22.0207 21.6333 21.8714 21.802 21.7199 21.802H19.4783V23.833H21.7199C22.6176 24 23.2161 23.6601 23.6646 22.8167L23.6631 22.8158Z" fill="#626262"/>
</svg>

<svg width="24" height="24" viewBox="0 0 24 24" fill="none" xmlns="http://www.w3.org/2000/svg"><path d="M23.663 22.816c.45-.844.45-1.691 0-2.534L13.94 1.183C13.496.34 12.747 0 12 0c-.747 0-1.497.508-1.941 1.183L6.914 7.44l.75.503c2.395 1.523 4.336 3.717 5.684 6.424 1.195 2.367 1.941 4.9 2.093 7.606h-2.246a16.416 16.416 0 0 0-1.793-6.422c-1.047-2.367-2.691-4.226-4.785-5.581l-.75-.503-2.988 5.748.747.503c1.944 1.35 3.288 3.55 3.59 6.088H2.282c-.148 0-.301-.172-.301-.172s-.148-.168 0-.335l1.348-2.707a3.483 3.483 0 0 0-1.644-1.01l-1.348 2.7c-.45.848-.45 1.691 0 2.539.45.843 1.047 1.179 1.94 1.179h6.88v-1.01c0-1.86-.445-3.55-1.195-5.241-.598-1.35-1.496-2.367-2.539-3.21L6.47 12.34c1.343 1.184 2.543 2.534 3.437 4.225 1.047 2.027 1.496 4.225 1.496 6.425V24h5.832v-1.01c0-3.383-.75-6.765-2.394-9.806-1.194-2.707-3.14-4.9-5.382-6.592L11.7 2.2c.153-.167.301-.167.301-.167.148 0 .148 0 .3.167l9.72 19.095c.147.167 0 .34 0 .34s-.15.168-.301.168h-2.242v2.031h2.242c.898.167 1.496-.173 1.945-1.016l-.002-.001Z" fill="#626262"/></svg>
